X: 1495
T: Nihâvent Seyir
C: Erol Bingöl
O: Turkey
F: http://compmusic.upf.edu/node/140
N: nihavent--seyir--sofyan--1--erol_bingol
N: makam= nihavent
N: form= seyir
N: usul= sofyan = 4/4
M: 4/4
L: 1/16
K: C _B _e  
Q: 1/4=60
%%MIDI tuningsystem comma53
c4 d4 d2e2 d2c2  | c2dc B2A2 B8  | A2B2 c2d2 e2f2 e2d2  | \
w:   |   |   | 
g3f feed d8  | 
w:   | 
d4 g4 a2b2 a2g2  | f2gf e2d2 e8  | d2e2 d2c2 B4 d4  | \
w:   |   |   | 
A2BA AGG^F G8  | 
w:   | 
|


